src/assets/images/logo.svg

<?xml version="1.0" encoding="UTF-8"?>
<svg width="74px" height="20px" viewBox="0 0 74 20" version="1.1" xmlns="http://www.w3.org/2000/svg" xmlns:xlink="http://www.w3.org/1999/xlink">
    <!-- Generator: Sketch 61 (89581) - https://sketch.com -->
    <title>Logo</title>
    <desc>Created with Sketch.</desc>
    <g id="Logo" stroke="none" stroke-width="1" fill="none" fill-rule="evenodd">
        <path d="M5.12,15.92 C6.12,15.92 7.03333333,15.7733333 7.86,15.48 C8.68666667,15.1866667 9.34333333,14.7433333 9.83,14.15 C10.3166667,13.5566667 10.56,12.8266667 10.56,11.96 C10.56,11.28 10.4233333,10.68 10.15,10.16 C9.87666667,9.64 9.52,9.18333333 9.08,8.79 C8.64,8.39666667 8.05333333,7.94666667 7.32,7.44 C7.25333333,7.38666667 7.18333333,7.33333333 7.11,7.28 C7.03666667,7.22666667 6.96,7.18 6.88,7.14 C6,6.52666667 5.36666667,6.06333333 4.98,5.75 C4.59333333,5.43666667 4.3,5.11333333 4.1,4.78 C3.9,4.44666667 3.8,4.05333333 3.8,3.6 C3.8,3.01333333 3.98666667,2.55666667 4.36,2.23 C4.73333333,1.90333333 5.22666667,1.74 5.84,1.74 C6.50666667,1.74 7.09333333,1.96 7.6,2.4 C8.10666667,2.84 8.50666667,3.40666667 8.8,4.1 C9.09333333,4.79333333 9.26666667,5.52 9.32,6.28 L9.32,6.28 L9.78,6.28 C9.78,3.98666667 9.81333333,2.36 9.88,1.4 L9.88,1.4 L9.42,1.4 C9.38,1.70666667 9.32666667,1.93 9.26,2.07 C9.19333333,2.21 9.1,2.28 8.98,2.28 C8.9,2.28 8.80333333,2.25333333 8.69,2.2 C8.57666667,2.14666667 8.44666667,2.08 8.3,2 C7.84666667,1.74666667 7.38333333,1.55 6.91,1.41 C6.43666667,1.27 5.82,1.2 5.06,1.2 C4.16666667,1.2 3.34333333,1.33666667 2.59,1.61 C1.83666667,1.88333333 1.23333333,2.30333333 0.78,2.87 C0.326666667,3.43666667 0.1,4.14 0.1,4.98 C0.1,5.67333333 0.253333333,6.28333333 0.56,6.81 C0.866666667,7.33666667 1.26,7.8 1.74,8.2 C2.22,8.6 2.86,9.06666667 3.66,9.6 C4.66,10.2666667 5.39666667,10.87 5.87,11.41 C6.34333333,11.95 6.58,12.6 6.58,13.36 C6.58,13.9733333 6.36333333,14.4533333 5.93,14.8 C5.49666667,15.1466667 4.91333333,15.32 4.18,15.32 C2.99333333,15.32 2.11333333,14.8266667 1.54,13.84 C0.966666667,12.8533333 0.633333333,11.5666667 0.54,9.98 L0.54,9.98 L0.08,9.98 C0.08,12.94 0.0533333333,14.8733333 4.97379915e-14,15.78 L4.97379915e-14,15.78 L0.46,15.78 C0.5,15.4733333 0.553333333,15.25 0.62,15.11 C0.686666667,14.97 0.78,14.9 0.9,14.9 C1.06,14.9 1.28666667,14.9933333 1.58,15.18 C2.04666667,15.4066667 2.55,15.5866667 3.09,15.72 C3.63,15.8533333 4.30666667,15.92 5.12,15.92 Z M14.5,3.44 C15.1933333,3.44 15.73,3.29333333 16.11,3 C16.49,2.70666667 16.68,2.28 16.68,1.72 C16.68,1.16 16.49,0.733333333 16.11,0.44 C15.73,0.146666667 15.1933333,0 14.5,0 C13.7933333,0 13.2533333,0.146666667 12.88,0.44 C12.5066667,0.733333333 12.32,1.16 12.32,1.72 C12.32,2.28 12.5066667,2.70666667 12.88,3 C13.2533333,3.29333333 13.7933333,3.44 14.5,3.44 Z M17.54,15.64 L17.54,15.22 C17.1266667,15.22 16.8366667,15.1166667 16.67,14.91 C16.5033333,14.7033333 16.42,14.3266667 16.42,13.78 L16.42,13.78 L16.42,5.04 C15.4866667,5.22666667 14.3266667,5.32 12.94,5.32 C12.54,5.32 12.1266667,5.3 11.7,5.26 L11.7,5.26 L11.7,5.68 C12.1133333,5.68 12.4033333,5.82 12.57,6.1 C12.7366667,6.38 12.82,6.82666667 12.82,7.44 L12.82,7.44 L12.82,13.78 C12.82,14.3266667 12.7366667,14.7033333 12.57,14.91 C12.4033333,15.1166667 12.1133333,15.22 11.7,15.22 L11.7,15.22 L11.7,15.64 C13.2466667,15.5866667 14.2466667,15.56 14.7,15.56 C15.1533333,15.56 16.1,15.5866667 17.54,15.64 L17.54,15.64 Z M24.68,19.26 L24.68,18.84 C24.1066667,18.84 23.6766667,18.72 23.39,18.48 C23.1033333,18.24 22.96,17.8133333 22.96,17.2 L22.96,17.2 L22.96,15.54 C23.4266667,15.7933333 24.0466667,15.92 24.82,15.92 C26.22,15.92 27.3466667,15.4633333 28.2,14.55 C29.0533333,13.6366667 29.48,12.12 29.48,10 C29.48,8.36 29.16,7.11333333 28.52,6.26 C27.88,5.40666667 27.04,4.98 26,4.98 C24.5866667,4.98 23.5733333,5.48 22.96,6.48 L22.96,6.48 L22.96,5.06 C22.0266667,5.24666667 20.8666667,5.34 19.48,5.34 C19.0666667,5.34 18.6533333,5.32 18.24,5.28 L18.24,5.28 L18.24,5.7 C18.6533333,5.7 18.9433333,5.84 19.11,6.12 C19.2766667,6.4 19.36,6.84666667 19.36,7.46 L19.36,7.46 L19.36,17.4 C19.36,17.9466667 19.2766667,18.3233333 19.11,18.53 C18.9433333,18.7366667 18.6533333,18.84 18.24,18.84 L18.24,18.84 L18.24,19.26 C19.68,19.2066667 20.6,19.18 21,19.18 C21.4666667,19.18 22.5,19.2 24.1,19.24 L24.1,19.24 L24.68,19.26 Z M23.66,15.32 C23.3666667,15.32 23.1333333,15.2666667 22.96,15.16 L22.96,15.16 L22.96,7.46 C22.96,7.04666667 23.1033333,6.70333333 23.39,6.43 C23.6766667,6.15666667 24.0133333,6.02 24.4,6.02 C24.8133333,6.02 25.14,6.35 25.38,7.01 C25.62,7.67 25.74,8.82 25.74,10.46 C25.74,12.1133333 25.5766667,13.3366667 25.25,14.13 C24.9233333,14.9233333 24.3933333,15.32 23.66,15.32 Z M37.8,15.64 C39.72,15.64 41.2,15.32 42.24,14.68 C43.28,14.04 43.8,13.0666667 43.8,11.76 C43.8,11.1866667 43.6066667,10.6433333 43.22,10.13 C42.8333333,9.61666667 42.2166667,9.18666667 41.37,8.84 C40.5233333,8.49333333 39.4466667,8.28666667 38.14,8.22 L38.14,8.22 L38.14,8.18 C39.14,8.06 39.9866667,7.81333333 40.68,7.44 C41.3733333,7.06666667 41.8933333,6.63 42.24,6.13 C42.5866667,5.63 42.76,5.13333333 42.76,4.64 C42.76,3.68 42.2966667,2.91666667 41.37,2.35 C40.4433333,1.78333333 39.1,1.5 37.34,1.5 C36.9933333,1.5 36.6866667,1.50666667 36.42,1.52 L36.42,1.52 L34.12,1.54 C32.5866667,1.54 31.44,1.52 30.68,1.48 L30.68,1.48 L30.68,1.88 C31.1066667,1.90666667 31.4133333,1.96 31.6,2.04 C31.7866667,2.12 31.9166667,2.27333333 31.99,2.5 C32.0633333,2.72666667 32.1,3.09333333 32.1,3.6 L32.1,3.6 L32.1,13.52 C32.1,14.0266667 32.0666667,14.3933333 32,14.62 C31.9333333,14.8466667 31.8033333,15 31.61,15.08 C31.4166667,15.16 31.1066667,15.2133333 30.68,15.24 L30.68,15.24 L30.68,15.64 C31.44,15.6 32.6,15.58 34.16,15.58 C35.0266667,15.58 35.9133333,15.5933333 36.82,15.62 C37.0866667,15.6333333 37.4133333,15.64 37.8,15.64 Z M36.7,8.12 L36.16,8.12 L36.16,3.6 C36.16,3.12 36.1866667,2.76 36.24,2.52 C36.2933333,2.28 36.3966667,2.11333333 36.55,2.02 C36.7033333,1.92666667 36.9333333,1.88 37.24,1.88 C37.7333333,1.88 38.09,2.12333333 38.31,2.61 C38.53,3.09666667 38.64,3.84666667 38.64,4.86 C38.64,5.84666667 38.4966667,6.63666667 38.21,7.23 C37.9233333,7.82333333 37.42,8.12 36.7,8.12 L36.7,8.12 Z M37.46,15.18 C37.0866667,15.18 36.81,15.1366667 36.63,15.05 C36.45,14.9633333 36.3266667,14.8066667 36.26,14.58 C36.1933333,14.3533333 36.16,14 36.16,13.52 L36.16,13.52 L36.16,8.46 L36.44,8.46 C37.5333333,8.46 38.3333333,8.73333333 38.84,9.28 C39.3466667,9.82666667 39.6,10.6266667 39.6,11.68 C39.6,14.0133333 38.8866667,15.18 37.46,15.18 Z M49.44,15.92 C50.5333333,15.92 51.43,15.5866667 52.13,14.92 C52.83,14.2533333 53.3266667,13.4533333 53.62,12.52 L53.62,12.52 L53.28,12.4 C52.64,13.2933333 51.8333333,13.74 50.86,13.74 C50.22,13.74 49.6766667,13.4666667 49.23,12.92 C48.7833333,12.3733333 48.56,11.46 48.56,10.18 C48.56,9.86 48.5666667,9.62 48.58,9.46 L48.58,9.46 L53.74,9.46 C53.74,6.47333333 52.48,4.98 49.96,4.98 C48.4133333,4.98 47.17,5.43666667 46.23,6.35 C45.29,7.26333333 44.82,8.63333333 44.82,10.46 C44.82,12.3666667 45.24,13.7533333 46.08,14.62 C46.92,15.4866667 48.04,15.92 49.44,15.92 Z M50.82,9.08 L48.5,9.08 C48.6333333,6.65333333 49.0733333,5.44 49.82,5.44 C50.1666667,5.44 50.4233333,5.78 50.59,6.46 C50.7566667,7.14 50.8333333,8.01333333 50.82,9.08 L50.82,9.08 Z M59.5,15.92 C60.5933333,15.92 61.49,15.5866667 62.19,14.92 C62.89,14.2533333 63.3866667,13.4533333 63.68,12.52 L63.68,12.52 L63.34,12.4 C62.7,13.2933333 61.8933333,13.74 60.92,13.74 C60.28,13.74 59.7366667,13.4666667 59.29,12.92 C58.8433333,12.3733333 58.62,11.46 58.62,10.18 C58.62,9.86 58.6266667,9.62 58.64,9.46 L58.64,9.46 L63.8,9.46 C63.8,6.47333333 62.54,4.98 60.02,4.98 C58.4733333,4.98 57.23,5.43666667 56.29,6.35 C55.35,7.26333333 54.88,8.63333333 54.88,10.46 C54.88,12.3666667 55.3,13.7533333 56.14,14.62 C56.98,15.4866667 58.1,15.92 59.5,15.92 Z M60.88,9.08 L58.56,9.08 C58.6933333,6.65333333 59.1333333,5.44 59.88,5.44 C60.2266667,5.44 60.4833333,5.78 60.65,6.46 C60.8166667,7.14 60.8933333,8.01333333 60.88,9.08 L60.88,9.08 Z M71.18,15.64 L71.18,15.22 C70.5533333,15.22 70.11,15.1033333 69.85,14.87 C69.59,14.6366667 69.46,14.2066667 69.46,13.58 L69.46,13.58 L69.46,7.58 C69.46,7.19333333 69.5733333,6.83666667 69.8,6.51 C70.0266667,6.18333333 70.3066667,5.94666667 70.64,5.8 C70.8266667,5.70666667 71.04,5.66 71.28,5.66 C70.6,6.11333333 70.26,6.73333333 70.26,7.52 C70.26,7.96 70.4133333,8.31 70.72,8.57 C71.0266667,8.83 71.4666667,8.96 72.04,8.96 C72.5866667,8.96 73.03,8.78333333 73.37,8.43 C73.71,8.07666667 73.88,7.6 73.88,7 C73.88,6.45333333 73.7366667,5.98 73.45,5.58 C73.1633333,5.18 72.6933333,4.98 72.04,4.98 C70.8266667,4.98 69.9666667,5.48 69.46,6.48 L69.46,6.48 L69.46,5.04 C68.5266667,5.22666667 67.3666667,5.32 65.98,5.32 C65.58,5.32 65.1666667,5.3 64.74,5.26 L64.74,5.26 L64.74,5.68 C65.1533333,5.68 65.4433333,5.82 65.61,6.1 C65.7766667,6.38 65.86,6.82666667 65.86,7.44 L65.86,7.44 L65.86,13.78 C65.86,14.3266667 65.7766667,14.7033333 65.61,14.91 C65.4433333,15.1166667 65.1533333,15.22 64.74,15.22 L64.74,15.22 L64.74,15.64 C64.9133333,15.64 65.0533333,15.6333333 65.16,15.62 C66.6,15.58 67.5266667,15.56 67.94,15.56 C68.4066667,15.56 69.34,15.58 70.74,15.62 C70.86,15.6333333 71.0066667,15.64 71.18,15.64 L71.18,15.64 Z" id="SipBeer" fill="#171717" fill-rule="nonzero"></path>
    </g>
</svg>

<svg xmlns="http://www.w3.org/2000/svg" width="74" height="20"><path d="M5.12 15.92c1 0 1.913-.147 2.74-.44s1.483-.737 1.97-1.33.73-1.323.73-2.2c0-.68-.137-1.28-.4-1.8a4.85 4.85 0 0 0-1.07-1.37c-.44-.393-1.027-.843-1.76-1.35l-.2-.16a1.63 1.63 0 0 0-.23-.14l-1.9-1.4c-.387-.313-.68-.637-.88-.97s-.3-.727-.3-1.18c0-.587.187-1.043.56-1.37s.867-.5 1.48-.5c.667 0 1.253.22 1.76.66s.907 1.007 1.2 1.7.467 1.42.52 2.18h.46l.1-4.88h-.46c-.04.307-.093.53-.16.67s-.16.2-.28.2c-.08 0-.177-.027-.3-.08L8.3 2c-.453-.253-.917-.45-1.4-.6s-1.1-.2-1.85-.2c-.893 0-1.717.137-2.47.4s-1.357.693-1.8 1.26S.1 4.14.1 4.98c0 .693.153 1.303.46 1.83s.7 1 1.18 1.4 1.12.867 1.92 1.4c1 .667 1.737 1.27 2.2 1.8s.7 1.2.7 1.95c0 .613-.217 1.093-.65 1.44s-1.017.52-1.75.52c-1.187 0-2.067-.493-2.64-1.48s-.907-2.273-1-3.86H.08L0 15.78h.46c.04-.307.093-.53.16-.67s.16-.2.28-.2c.16 0 .387.093.68.28.467.227.97.407 1.5.54s1.217.2 2.03.2zM14.5 3.44c.693 0 1.23-.147 1.6-.44s.57-.72.57-1.28-.2-.987-.57-1.28S15.193 0 14.5 0c-.707 0-1.247.147-1.62.44s-.56.72-.56 1.28.187.987.56 1.28.913.44 1.62.44zm3.04 12.2v-.42c-.413 0-.703-.103-.87-.3s-.25-.583-.25-1.13V5.04c-.933.187-2.093.28-3.48.28a13.29 13.29 0 0 1-1.24-.06v.42c.413 0 .703.14.87.42s.25.727.25 1.34v6.34c0 .547-.083.923-.25 1.13s-.457.3-.87.3v.42l3-.08 2.84.08zm7.14 3.62v-.42c-.573 0-1.003-.12-1.3-.36s-.43-.667-.43-1.28v-1.66c.467.253 1.087.38 1.86.38 1.4 0 2.527-.457 3.38-1.37s1.28-2.43 1.28-4.55c0-1.64-.32-2.887-.96-3.74A3 3 0 0 0 26 4.98c-1.413 0-2.427.5-3.04 1.5V5.06c-.933.187-2.093.28-3.48.28-.413 0-.827-.02-1.24-.06v.42c.413 0 .703.14.87.42s.25.727.25 1.34v9.94c0 .547-.083.923-.25 1.13s-.457.3-.87.3v.42l2.76-.08 3.1.06.58.02zm-1.02-3.94c-.293 0-.527-.053-.7-.16v-7.7c0-.413.143-.757.43-1.03s.623-.4 1-.4c.413 0 .74.33.98 1s.36 1.8.36 3.45c0 1.653-.163 2.877-.5 3.67s-.857 1.2-1.6 1.2zm14.14.32c1.92 0 3.4-.32 4.44-.96s1.56-1.613 1.56-2.92c0-.573-.193-1.117-.58-1.63s-1.003-.943-1.85-1.3-1.923-.553-3.23-.62v-.04c1-.12 1.847-.367 2.54-.74s1.213-.8 1.56-1.3.52-.997.52-1.5c0-.96-.463-1.723-1.4-2.3s-2.27-.85-4.03-.85l-.92.02-2.3.02c-1.533 0-2.68-.02-3.44-.06v.4c.427.027.733.08.92.16s.317.233.4.46.1.593.1 1.1v9.92c0 .507-.033.873-.1 1.1s-.197.38-.4.46-.503.133-.93.16v.4l3.48-.06 2.66.04.98.02zm-1.1-7.52h-.54V3.6c0-.48.027-.84.08-1.08s.157-.407.3-.5.383-.14.7-.14c.493 0 .85.243 1.07.73s.33 1.237.33 2.25c0 .987-.143 1.777-.43 2.37s-.8.9-1.5.9zm.76 7.06c-.373 0-.65-.043-.83-.13s-.303-.243-.37-.47-.1-.58-.1-1.06V8.46h.28c1.093 0 1.893.273 2.4.82s.76 1.347.76 2.4c0 2.333-.713 3.5-2.14 3.5zm11.98.74c1.093 0 2-.333 2.7-1s1.197-1.467 1.5-2.4l-.34-.12c-.64.893-1.447 1.34-2.42 1.34-.64 0-1.183-.273-1.63-.82s-.67-1.46-.67-2.74l.02-.72h5.16c0-2.987-1.26-4.48-3.78-4.48-1.547 0-2.8.457-3.73 1.37s-1.4 2.283-1.4 4.1c0 1.907.42 3.293 1.26 4.16s1.96 1.3 3.36 1.3zm1.38-6.84H48.5c.133-2.427.573-3.64 1.32-3.64.347 0 .603.34.77 1.02s.243 1.553.23 2.62zm8.68 6.84c1.093 0 2-.333 2.7-1s1.197-1.467 1.5-2.4l-.34-.12c-.64.893-1.447 1.34-2.42 1.34-.64 0-1.183-.273-1.63-.82s-.67-1.46-.67-2.74l.02-.72h5.16c0-2.987-1.26-4.48-3.78-4.48-1.547 0-2.8.457-3.73 1.37s-1.4 2.283-1.4 4.1c0 1.907.42 3.293 1.26 4.16s1.96 1.3 3.36 1.3zm1.38-6.84h-2.32c.133-2.427.573-3.64 1.32-3.64.347 0 .603.34.77 1.02s.243 1.553.23 2.62zm10.3 6.56v-.42c-.627 0-1.07-.117-1.33-.35s-.4-.663-.4-1.3v-6c0-.387.113-.743.34-1.07s.507-.563.84-.7c.187-.093.4-.14.64-.14-.68.453-1.02 1.073-1.02 1.86 0 .44.153.8.46 1.05s.747.4 1.32.4c.547 0 1-.177 1.33-.53s.5-.83.5-1.43c0-.547-.143-1.02-.43-1.42s-.757-.6-1.4-.6c-1.213 0-2.073.5-2.58 1.5V5.04c-.933.187-2.093.28-3.48.28a13.29 13.29 0 0 1-1.24-.06v.42c.413 0 .703.14.87.42s.25.727.25 1.34v6.34c0 .547-.083.923-.25 1.13s-.457.3-.87.3v.42l.42-.02 2.78-.06 2.8.06a4.08 4.08 0 0 0 .44.02z" fill="#171717" fill-rule="nonzero"/></svg>
